kwai.svg

<svg viewBox="0 0 8 8" xmlns="http://www.w3.org/2000/svg"><path d="M6.10457 4.10256C6.87945 4.10256 7.50762 4.72707 7.50762 5.49744L7.50762 6.60513C7.50762 7.37549 6.87945 8 6.10457 8L4.04127 8C3.41899 8 2.89133 7.59725 2.70763 7.03965L1.47838 7.65225C1.1422 7.81978 0.733069 7.68464 0.564565 7.35042C0.517097 7.25627 0.49238 7.15241 0.49238 7.0471L0.49238 5.06032C0.49238 4.68646 0.797225 4.38339 1.17327 4.38339C1.28011 4.38339 1.38545 4.40839 1.48077 4.45636L2.7046 5.07223C2.88547 4.5098 3.41553 4.10256 4.04127 4.10256L6.10457 4.10256ZM6.09554 4.82061L4.0619 4.82051C3.67833 4.82051 3.36666 5.12655 3.36047 5.50642L3.36038 6.58462C3.36038 6.96595 3.66821 7.2758 4.0503 7.28196L6.08394 7.28205C6.46751 7.28205 6.77917 6.97601 6.78537 6.59615L6.78546 5.51795C6.78546 5.13662 6.47763 4.82677 6.09554 4.82061ZM1.40023 5.25313C1.29882 5.25313 1.21639 5.33395 1.21457 5.43435L1.21454 6.68324C1.21454 6.71239 1.22148 6.74113 1.2348 6.76711C1.28086 6.85689 1.39067 6.89319 1.48144 6.84927L1.48459 6.8477L2.63816 6.26274L2.63816 5.84917L1.48356 5.27276C1.4577 5.25985 1.42917 5.25313 1.40023 5.25313ZM3.11278 0C3.82442 0 4.4446 0.389321 4.76957 0.965413C5.06019 0.697308 5.44964 0.533333 5.87761 0.533333C6.77784 0.533333 7.50762 1.25886 7.50762 2.15385C7.50762 3.04883 6.77784 3.77436 5.87761 3.77436C5.33632 3.77436 4.85666 3.51206 4.5602 3.10833C4.21211 3.51571 3.69283 3.77436 3.11278 3.77436C2.06441 3.77436 1.21454 2.92944 1.21454 1.88718C1.21454 0.844919 2.06441 0 3.11278 0ZM3.11278 0.758974C2.48604 0.758974 1.97796 1.26409 1.97796 1.88718C1.97796 2.51027 2.48604 3.01538 3.11278 3.01538C3.73952 3.01538 4.2476 2.51027 4.2476 1.88718C4.2476 1.26409 3.73952 0.758974 3.11278 0.758974ZM5.87761 1.29231C5.399 1.29231 5.01102 1.67803 5.01102 2.15385C5.01102 2.62966 5.399 3.01538 5.87761 3.01538C6.35621 3.01538 6.7442 2.62966 6.7442 2.15385C6.7442 1.67803 6.35621 1.29231 5.87761 1.29231Z" fill="#ff4906"/></svg>

<svg viewBox="0 0 8 8" xmlns="http://www.w3.org/2000/svg"><path d="M6.105 4.103c.774 0 1.403.624 1.403 1.394v1.108C7.508 7.375 6.879 8 6.105 8H4.04c-.622 0-1.15-.403-1.333-.96l-1.23.612a.683.683 0 0 1-.986-.605V5.06a.679.679 0 0 1 .989-.604l1.224.616c.18-.562.71-.97 1.336-.97h2.064Zm-.01.718H4.063a.7.7 0 0 0-.702.685v1.079a.7.7 0 0 0 .69.697h2.034a.7.7 0 0 0 .701-.686V5.518a.7.7 0 0 0-.69-.697ZM1.4 5.253a.185.185 0 0 0-.185.181v1.25a.186.186 0 0 0 .267.166l.003-.002 1.153-.585v-.414l-1.154-.576a.187.187 0 0 0-.084-.02ZM3.113 0A1.9 1.9 0 0 1 4.77.965c.29-.268.68-.432 1.108-.432.9 0 1.63.726 1.63 1.62 0 .896-.73 1.621-1.63 1.621a1.63 1.63 0 0 1-1.318-.666 1.899 1.899 0 0 1-1.447.666 1.893 1.893 0 0 1-1.898-1.887C1.215.845 2.065 0 3.113 0Zm0 .759c-.627 0-1.135.505-1.135 1.128 0 .623.508 1.128 1.135 1.128s1.135-.505 1.135-1.128C4.248 1.264 3.74.76 3.113.76Zm2.765.533a.864.864 0 0 0-.867.862c0 .476.388.861.867.861a.864.864 0 0 0 .866-.861.864.864 0 0 0-.866-.862Z" fill="#ff4906"/></svg>
